dist/files/industries_chemicals_logo.svg

<svg width="142" height="142" viewBox="0 0 142 142" fill="none" xmlns="http://www.w3.org/2000/svg">
<g filter="url(#filter0_d_6017_3420)">
<circle cx="67" cy="68" r="59" fill="#152968"/>
</g>
<mask id="mask0_6017_3420" style="mask-type:luminance" maskUnits="userSpaceOnUse" x="26" y="26" width="79" height="79">
<path d="M26 26H105V105H26V26Z" fill="white"/>
</mask>
<g mask="url(#mask0_6017_3420)">
<path d="M98.4494 66.6199C98.9137 67.9297 100.161 68.8735 101.628 68.8735C103.488 68.8735 105 67.3597 105 65.5C105 63.6403 103.488 62.1278 101.628 62.1278C100.161 62.1278 98.9137 63.0703 98.4494 64.3814H80.0546C79.8759 62.0372 79.141 59.8465 77.9822 57.9402H92.1429C92.7607 57.9402 93.2615 57.4394 93.2615 56.8204V44.4628H97.4591C97.9222 45.7726 99.1691 46.7164 100.636 46.7164C102.496 46.7164 104.008 45.2026 104.008 43.3429C104.008 41.4844 102.496 39.9707 100.636 39.9707C99.1691 39.9707 97.9222 40.9132 97.4591 42.2243H92.1429C91.5238 42.2243 91.023 42.7251 91.023 43.3429V55.7018H76.3099C73.6373 52.7561 69.7807 50.9039 65.5 50.9039C57.452 50.9039 50.9039 57.452 50.9039 65.5C50.9039 73.5492 57.452 80.0973 65.5 80.0973C69.7807 80.0973 73.6373 78.2451 76.3099 75.2995H91.023V87.6571C91.023 88.2749 91.5238 88.777 92.1429 88.777H97.4591C97.9222 90.0868 99.1704 91.0293 100.636 91.0293C102.496 91.0293 104.008 89.5168 104.008 87.6571C104.008 85.7974 102.496 84.2849 100.636 84.2849C99.1704 84.2849 97.9222 85.2273 97.4591 86.5372H93.2615V74.1796C93.2615 73.5618 92.7607 73.061 92.1429 73.061H77.9822C79.141 71.1547 79.8759 68.9641 80.0546 66.6199H98.4494ZM100.636 42.2092C101.262 42.2092 101.77 42.7188 101.77 43.3429C101.77 43.9683 101.262 44.4766 100.636 44.4766C100.011 44.4766 99.5026 43.9683 99.5026 43.3429C99.5026 42.7188 100.011 42.2092 100.636 42.2092ZM100.636 86.5234C101.262 86.5234 101.77 87.0317 101.77 87.6571C101.77 88.2825 101.262 88.7908 100.636 88.7908C100.011 88.7908 99.5026 88.2825 99.5026 87.6571C99.5026 87.0317 100.011 86.5234 100.636 86.5234ZM101.628 64.3663C102.253 64.3663 102.762 64.8746 102.762 65.5C102.762 66.1254 102.253 66.6337 101.628 66.6337C101.002 66.6337 100.494 66.1254 100.494 65.5C100.494 64.8746 101.002 64.3663 101.628 64.3663ZM73.3882 64.3814C73.3013 62.3128 72.9755 60.3826 72.4583 58.6738C73.4096 58.4285 74.3067 58.129 75.141 57.7817C76.6194 59.6251 77.5808 61.8975 77.8047 64.3814H73.3882ZM64.3814 77.1341C63.3949 76.6824 62.4399 75.6531 61.661 74.1595C62.5393 74.0349 63.4503 73.9557 64.3814 73.9192V77.1341ZM64.3814 71.6794C63.1458 71.7247 61.9391 71.843 60.7814 72.0317C60.2819 70.4903 59.9459 68.6646 59.8541 66.6199H64.3814V71.6794ZM59.8541 64.3814C59.9422 62.4084 60.2567 60.6393 60.7286 59.1331C61.9013 59.3269 63.1256 59.4477 64.3814 59.4942V64.3814H59.8541ZM61.5792 57.0028C62.3719 55.4224 63.3597 54.3353 64.3814 53.8672V57.2545C63.4213 57.2167 62.4826 57.1324 61.5792 57.0028ZM66.6199 53.8659C67.6403 54.334 68.6281 55.4212 69.4221 57.0028C68.5174 57.1324 67.5787 57.2167 66.6199 57.2545V53.8659ZM70.2173 54.0798C71.3938 54.568 72.4784 55.2324 73.4398 56.0402C72.8786 56.2378 72.2872 56.4127 71.6731 56.5637C71.2504 55.6275 70.7609 54.792 70.2173 54.0798ZM59.3281 56.5637C58.7128 56.4127 58.1227 56.2378 57.5615 56.0402C58.5228 55.2324 59.6075 54.568 60.784 54.0798C60.2391 54.792 59.7496 55.6275 59.3281 56.5637ZM58.5417 58.6738C58.0258 60.3826 57.6999 62.3128 57.6131 64.3814H53.1953C53.4192 61.8975 54.3818 59.6251 55.8603 57.7817C56.6933 58.129 57.5917 58.4285 58.5417 58.6738ZM57.6131 66.6199C57.7024 68.7527 58.0459 70.7395 58.592 72.4872C57.6609 72.7251 56.7814 73.0145 55.9622 73.3492C54.4246 71.4831 53.4255 69.1616 53.1953 66.6199H57.6131ZM59.3986 74.5923C59.805 75.4656 60.2693 76.2482 60.784 76.9202C59.6666 76.4571 58.6323 75.8355 57.7075 75.0831C58.2473 74.8981 58.8122 74.7345 59.3986 74.5923ZM66.6199 77.1341V73.9192C67.5497 73.9557 68.4607 74.0349 69.3403 74.1595C68.5614 75.6531 67.6051 76.6824 66.6199 77.1341ZM71.6027 74.5911C72.189 74.7345 72.754 74.8981 73.2925 75.0831C72.3677 75.8355 71.3334 76.4571 70.2173 76.9202C70.7307 76.2482 71.1962 75.4656 71.6027 74.5911ZM66.6199 71.6794V66.6199H71.1459C71.0553 68.6646 70.7194 70.4903 70.2198 72.0317C69.0622 71.843 67.8542 71.7247 66.6199 71.6794ZM66.6199 64.3814V59.4942C67.8744 59.4477 69.0999 59.3269 70.2727 59.1331C70.7433 60.6393 71.0578 62.4084 71.1459 64.3814H66.6199ZM75.039 73.3492C74.2199 73.0145 73.3391 72.7251 72.4092 72.4872C72.9541 70.7395 73.2988 68.7527 73.3882 66.6199H77.8047C77.5757 69.1616 76.5767 71.4831 75.039 73.3492ZM86.726 92.1315V89.6087C86.726 89.3117 86.6077 89.0274 86.3976 88.8172C86.1874 88.6071 85.903 88.4901 85.6061 88.4901C85.6061 88.4901 85.6061 88.4901 85.6048 88.4901L66.6199 88.5039V84.256C66.6199 83.6381 66.1191 83.1373 65.5 83.1373C55.776 83.1373 47.8639 75.2253 47.8639 65.5C47.8639 55.776 55.776 47.8639 65.5 47.8639C66.1191 47.8639 66.6199 47.3631 66.6199 46.744V42.4961L85.6048 42.5112C85.6061 42.5112 85.6061 42.5112 85.6061 42.5112C85.903 42.5112 86.1874 42.3929 86.3976 42.184C86.6077 41.9739 86.726 41.6883 86.726 41.3913V38.8685C88.0358 38.4054 88.9783 37.1584 88.9783 35.6913C88.9783 33.8315 87.4658 32.3191 85.6061 32.3191C83.7464 32.3191 82.2339 33.8315 82.2339 35.6913C82.2339 37.1584 83.1763 38.4054 84.4862 38.8685V40.2714L66.6199 40.2576V36.1795L76.0092 36.1933H76.0104C76.3074 36.1933 76.5918 36.0751 76.8019 35.8649C77.012 35.6561 77.1303 35.3704 77.1303 35.0735V32.5506C78.4402 32.0876 79.3826 30.8394 79.3826 29.3735C79.3826 27.5137 77.8702 26 76.0104 26C74.1507 26 72.6382 27.5137 72.6382 29.3735C72.6382 30.8394 73.5807 32.0876 74.8906 32.5506V33.9523L66.6199 33.941V27.1199C66.6199 26.5021 66.1191 26 65.5 26H61.6622C59.6553 26 58.022 27.6333 58.022 29.6415C58.022 32.6764 56.2768 35.2849 53.467 36.4475C50.6573 37.6114 47.5783 37.0024 45.4317 34.8558C44.7446 34.1688 43.8299 33.79 42.8572 33.79C41.8846 33.79 40.971 34.1688 40.2828 34.8558L34.8558 40.284C34.1675 40.971 33.79 41.8858 33.79 42.8585C33.79 43.8299 34.1675 44.7446 34.8558 45.4329C37.0049 47.5808 37.6177 50.6611 36.4538 53.4696C35.2912 56.278 32.6802 58.022 29.6415 58.022C27.6333 58.022 26 59.6553 26 61.6622V69.3378C26 71.346 27.6333 72.9792 29.6402 72.9792C32.6764 72.9792 35.2849 74.7245 36.4475 77.5342C37.6114 80.344 37.0012 83.423 34.8558 85.5683C34.1675 86.2566 33.79 87.1701 33.79 88.1428C33.79 89.1154 34.1675 90.0302 34.8558 90.7172L40.284 96.1455C41.7034 97.5648 44.0123 97.5648 45.4317 96.1455C47.5783 93.9988 50.6573 93.3886 53.467 94.5525C56.2768 95.7164 58.022 98.3248 58.022 101.36C58.022 103.367 59.6553 105 61.6622 105H65.5C66.1191 105 66.6199 104.499 66.6199 103.881V97.0602L74.8906 97.0489V98.4506C73.5807 98.9137 72.6382 100.161 72.6382 101.628C72.6382 103.488 74.1507 105 76.0104 105C77.8702 105 79.3826 103.488 79.3826 101.628C79.3826 100.161 78.4402 98.9137 77.1303 98.4506V95.9278C77.1303 95.6308 77.012 95.3452 76.8019 95.1351C76.5918 94.9262 76.3074 94.8079 76.0104 94.8079H76.0092L66.6199 94.8205V90.7437L84.4862 90.7298V92.1315C83.1763 92.5946 82.2339 93.8428 82.2339 95.3087C82.2339 97.1684 83.7464 98.6822 85.6061 98.6822C87.4658 98.6822 88.9783 97.1684 88.9783 95.3087C88.9783 93.8428 88.0358 92.5946 86.726 92.1315ZM85.6061 34.5576C86.2315 34.5576 86.7398 35.0659 86.7398 35.6913C86.7398 36.3167 86.2315 36.825 85.6061 36.825C84.9807 36.825 84.4724 36.3167 84.4724 35.6913C84.4724 35.0659 84.9807 34.5576 85.6061 34.5576ZM76.0104 28.2397C76.6358 28.2397 77.1441 28.7481 77.1441 29.3735C77.1441 29.9976 76.6358 30.5072 76.0104 30.5072C75.3851 30.5072 74.8767 29.9976 74.8767 29.3735C74.8767 28.7481 75.3851 28.2397 76.0104 28.2397ZM76.0104 102.762C75.3851 102.762 74.8767 102.253 74.8767 101.628C74.8767 101.002 75.3851 100.494 76.0104 100.494C76.6358 100.494 77.1441 101.002 77.1441 101.628C77.1441 102.253 76.6358 102.762 76.0104 102.762ZM64.3814 102.762H61.6622C60.8897 102.762 60.2605 102.132 60.2605 101.36C60.2605 97.4025 57.9855 94.0014 54.3239 92.4839C53.0946 91.9755 51.8275 91.7264 50.578 91.7264C48.1055 91.7264 45.7085 92.7028 43.8487 94.5613C43.3026 95.1086 42.413 95.1086 41.8669 94.5613L36.4387 89.1343C36.1745 88.8701 36.0285 88.5178 36.0285 88.1428C36.0285 87.7678 36.1745 87.4168 36.4387 87.1513C39.2371 84.3528 40.0336 80.3389 38.5161 76.6773C36.9999 73.0157 33.5988 70.7395 29.6415 70.7395C28.8676 70.7395 28.2397 70.1116 28.2397 69.3378V61.6622C28.2397 60.8897 28.8676 60.2605 29.6415 60.2605C33.6025 60.2605 37.0062 57.9868 38.5224 54.3265C40.0387 50.6649 39.2409 46.6509 36.4387 43.8487C36.1745 43.5845 36.0285 43.2322 36.0285 42.8585C36.0285 42.4835 36.1745 42.1312 36.4387 41.8669L41.8669 36.4387C42.1312 36.1745 42.4835 36.0285 42.8572 36.0285C43.2322 36.0285 43.5845 36.1745 43.8487 36.4387C46.6472 39.2371 50.6611 40.0336 54.3239 38.5161C57.9855 36.9999 60.2605 33.5988 60.2605 29.6415C60.2605 28.8676 60.8897 28.2397 61.6622 28.2397H64.3814V45.6556C53.9402 46.2395 45.6254 54.9166 45.6254 65.5C45.6254 76.0834 53.9402 84.7618 64.3814 85.3444V102.762ZM85.6061 96.4424C84.9807 96.4424 84.4724 95.9341 84.4724 95.3087C84.4724 94.6846 84.9807 94.175 85.6061 94.175C86.2315 94.175 86.7398 94.6846 86.7398 95.3087C86.7398 95.9341 86.2315 96.4424 85.6061 96.4424Z" fill="white"/>
</g>
<defs>
<filter id="filter0_d_6017_3420" x="0.6" y="0.6" width="140.8" height="140.8" filterUnits="userSpaceOnUse" color-interpolation-filters="sRGB">
<feFlood flood-opacity="0" result="BackgroundImageFix"/>
<feColorMatrix in="SourceAlpha" type="matrix" values="0 0 0 0 0 0 0 0 0 0 0 0 0 0 0 0 0 0 127 0" result="hardAlpha"/>
<feOffset dx="4" dy="3"/>
<feGaussianBlur stdDeviation="5.7"/>
<feComposite in2="hardAlpha" operator="out"/>
<feColorMatrix type="matrix" values="0 0 0 0 0.128333 0 0 0 0 0.119778 0 0 0 0 0.119778 0 0 0 0.25 0"/>
<feBlend mode="normal" in2="BackgroundImageFix" result="effect1_dropShadow_6017_3420"/>
<feBlend mode="normal" in="SourceGraphic" in2="effect1_dropShadow_6017_3420" result="shape"/>
</filter>
</defs>
</svg>

<svg width="142" height="142" fill="none" xmlns="http://www.w3.org/2000/svg"><g filter="url(#a)"><circle cx="67" cy="68" r="59" fill="#152968"/></g><mask id="b" style="mask-type:luminance" maskUnits="userSpaceOnUse" x="26" y="26" width="79" height="79"><path d="M26 26h79v79H26V26Z" fill="#fff"/></mask><g mask="url(#b)"><path d="M98.45 66.62a3.379 3.379 0 0 0 3.178 2.254A3.376 3.376 0 0 0 105 65.5a3.375 3.375 0 0 0-3.372-3.372 3.377 3.377 0 0 0-3.179 2.253H80.055a14.5 14.5 0 0 0-2.073-6.44h14.16c.619 0 1.12-.502 1.12-1.12V44.462h4.197a3.375 3.375 0 0 0 3.177 2.253 3.376 3.376 0 0 0 3.372-3.373 3.376 3.376 0 0 0-3.372-3.372 3.374 3.374 0 0 0-3.177 2.253h-5.316c-.62 0-1.12.501-1.12 1.119v12.359H76.31a14.563 14.563 0 0 0-10.81-4.798c-8.048 0-14.596 6.548-14.596 14.596 0 8.05 6.548 14.597 14.596 14.597 4.28 0 8.137-1.852 10.81-4.797h14.713v12.357c0 .618.5 1.12 1.12 1.12h5.316a3.376 3.376 0 0 0 3.177 2.252 3.375 3.375 0 0 0 3.372-3.372 3.375 3.375 0 0 0-3.372-3.372 3.375 3.375 0 0 0-3.177 2.252h-4.198V74.18c0-.618-.5-1.119-1.118-1.119h-14.16a14.499 14.499 0 0 0 2.072-6.441h18.394Zm2.186-24.41a1.135 1.135 0 1 1-1.133 1.134c0-.625.508-1.135 1.133-1.135Zm0 44.313a1.135 1.135 0 1 1-.001 2.27 1.135 1.135 0 0 1 .001-2.27Zm.992-22.157c.625 0 1.134.509 1.134 1.134a1.135 1.135 0 0 1-2.268 0c0-.625.508-1.134 1.134-1.134Zm-28.24.015c-.087-2.068-.413-3.998-.93-5.707a19.942 19.942 0 0 0 2.683-.892 12.295 12.295 0 0 1 2.664 6.6h-4.417Zm-9.007 12.753c-.986-.452-1.941-1.48-2.72-2.975.878-.124 1.79-.203 2.72-.24v3.215Zm0-5.455a29.04 29.04 0 0 0-3.6.353c-.5-1.542-.835-3.367-.927-5.412h4.527v5.06Zm-4.527-7.298c.088-1.973.403-3.742.875-5.248 1.172.194 2.397.315 3.652.361v4.887h-4.527Zm1.725-7.378c.793-1.58 1.78-2.668 2.802-3.136v3.388a27.355 27.355 0 0 1-2.802-.252Zm5.04-3.137c1.021.468 2.01 1.555 2.803 3.137-.905.13-1.843.214-2.802.252v-3.39Zm3.598.214a12.396 12.396 0 0 1 3.223 1.96c-.561.198-1.153.373-1.767.524a12.725 12.725 0 0 0-1.456-2.484Zm-10.889 2.484a18.851 18.851 0 0 1-1.767-.524 12.394 12.394 0 0 1 3.223-1.96 12.602 12.602 0 0 0-1.456 2.484Zm-.786 2.11c-.516 1.709-.842 3.639-.929 5.707h-4.418a12.295 12.295 0 0 1 2.665-6.6c.833.348 1.732.648 2.682.893Zm-.929 7.946c.09 2.133.433 4.12.979 5.867-.931.238-1.81.528-2.63.862a12.31 12.31 0 0 1-2.767-6.73h4.418Zm1.786 7.972c.406.874.87 1.656 1.385 2.328a12.394 12.394 0 0 1-3.076-1.837c.54-.185 1.104-.349 1.69-.49Zm7.22 2.542V73.92c.93.037 1.842.116 2.721.24-.779 1.494-1.735 2.523-2.72 2.975Zm4.984-2.543c.586.144 1.151.307 1.69.492a12.41 12.41 0 0 1-3.076 1.837c.514-.672.98-1.454 1.386-2.329ZM66.62 71.68v-5.06h4.526c-.09 2.046-.427 3.871-.926 5.413a29.061 29.061 0 0 0-3.6-.353Zm0-7.298v-4.887a29.07 29.07 0 0 0 3.653-.36c.47 1.505.785 3.274.873 5.247H66.62Zm8.419 8.968c-.82-.335-1.7-.624-2.63-.862.545-1.747.89-3.734.98-5.867h4.416a12.298 12.298 0 0 1-2.766 6.73Zm11.687 18.782V89.61a1.12 1.12 0 0 0-1.12-1.119h-.001l-18.985.014v-4.248c0-.618-.5-1.119-1.12-1.119-9.724 0-17.636-7.912-17.636-17.637 0-9.724 7.912-17.636 17.636-17.636.62 0 1.12-.5 1.12-1.12v-4.248l18.985.015h.001a1.122 1.122 0 0 0 1.12-1.12v-2.523a3.375 3.375 0 0 0 2.252-3.177 3.376 3.376 0 0 0-3.372-3.372 3.376 3.376 0 0 0-3.372 3.372c0 1.467.942 2.714 2.252 3.177v1.403l-17.866-.013v-4.079l9.39.014a1.119 1.119 0 0 0 1.12-1.12v-2.522a3.375 3.375 0 0 0 2.253-3.178A3.377 3.377 0 0 0 76.01 26a3.377 3.377 0 0 0-3.372 3.373c0 1.466.943 2.715 2.253 3.178v1.401l-8.271-.011V27.12c0-.618-.5-1.12-1.12-1.12h-3.838a3.645 3.645 0 0 0-3.64 3.642c0 3.034-1.745 5.643-4.555 6.805-2.81 1.164-5.889.555-8.035-1.591a3.618 3.618 0 0 0-2.575-1.066 3.62 3.62 0 0 0-2.574 1.066l-5.427 5.428a3.612 3.612 0 0 0-1.066 2.575c0 .97.377 1.886 1.066 2.574 2.149 2.148 2.762 5.228 1.598 8.037-1.163 2.808-3.774 4.552-6.813 4.552A3.645 3.645 0 0 0 26 61.662v7.676a3.645 3.645 0 0 0 3.64 3.641c3.036 0 5.645 1.746 6.807 4.555 1.164 2.81.554 5.889-1.591 8.034a3.615 3.615 0 0 0-1.066 2.575c0 .972.377 1.887 1.066 2.574l5.428 5.428a3.644 3.644 0 0 0 5.148 0c2.146-2.146 5.225-2.756 8.035-1.593 2.81 1.164 4.555 3.773 4.555 6.808a3.644 3.644 0 0 0 3.64 3.64H65.5c.62 0 1.12-.501 1.12-1.119v-6.82l8.27-.012v1.402a3.375 3.375 0 0 0-2.252 3.177A3.375 3.375 0 0 0 76.01 105a3.375 3.375 0 0 0 3.373-3.372 3.375 3.375 0 0 0-2.253-3.177v-2.523a1.122 1.122 0 0 0-1.12-1.12l-9.39.012v-4.076l17.866-.014v1.401a3.376 3.376 0 0 0-2.252 3.178 3.377 3.377 0 0 0 3.372 3.373 3.377 3.377 0 0 0 3.372-3.373 3.376 3.376 0 0 0-2.252-3.177Zm-1.12-57.573a1.135 1.135 0 0 1 0 2.267 1.135 1.135 0 0 1 0-2.267ZM76.01 28.24a1.135 1.135 0 0 1 0 2.267 1.135 1.135 0 0 1 0-2.268Zm0 74.522a1.135 1.135 0 0 1 0-2.268 1.135 1.135 0 0 1 0 2.268Zm-11.629 0h-2.719c-.772 0-1.401-.63-1.401-1.402 0-3.957-2.276-7.359-5.937-8.876a9.784 9.784 0 0 0-3.746-.758c-2.473 0-4.87.977-6.73 2.835a1.401 1.401 0 0 1-1.981 0l-5.428-5.427a1.393 1.393 0 0 1-.41-.991c0-.375.145-.726.41-.992 2.798-2.798 3.595-6.812 2.077-10.474C37 73.016 33.6 70.74 29.642 70.74a1.402 1.402 0 0 1-1.402-1.401v-7.676c0-.772.628-1.401 1.402-1.401 3.96 0 7.364-2.274 8.88-5.934 1.517-3.662.719-7.676-2.083-10.478a1.393 1.393 0 0 1-.41-.99c0-.376.145-.728.41-.992l5.428-5.428c.264-.264.617-.41.99-.41.375 0 .727.145.992.41 2.798 2.798 6.812 3.595 10.475 2.077C57.986 37 60.26 33.6 60.26 29.642c0-.774.629-1.402 1.401-1.402h2.72v17.416c-10.442.584-18.757 9.26-18.757 19.844 0 10.583 8.315 19.262 18.756 19.844v17.418Zm21.225-6.32a1.135 1.135 0 0 1 0-2.267 1.135 1.135 0 0 1 0 2.267Z" fill="#fff"/></g><defs><filter id="a" x=".6" y=".6" width="140.8" height="140.8" filterUnits="userSpaceOnUse" color-interpolation-filters="sRGB"><feFlood flood-opacity="0" result="BackgroundImageFix"/><feColorMatrix in="SourceAlpha" values="0 0 0 0 0 0 0 0 0 0 0 0 0 0 0 0 0 0 127 0" result="hardAlpha"/><feOffset dx="4" dy="3"/><feGaussianBlur stdDeviation="5.7"/><feComposite in2="hardAlpha" operator="out"/><feColorMatrix values="0 0 0 0 0.128333 0 0 0 0 0.119778 0 0 0 0 0.119778 0 0 0 0.25 0"/><feBlend in2="BackgroundImageFix" result="effect1_dropShadow_6017_3420"/><feBlend in="SourceGraphic" in2="effect1_dropShadow_6017_3420" result="shape"/></filter></defs></svg>
